vsi/server-process_light.svg

<svg viewBox="0 0 16 16" fill="none" xmlns="http://www.w3.org/2000/svg" height="1em" width="1em">
  <path fill-rule="evenodd" clip-rule="evenodd" d="M1.50024 2H14.5002L15.0002 2.5V9H14.0002V6H2.00024V13H9.00024V14H1.50024L1.00024 13.5V2.5L1.50024 2ZM2.00024 5H14.0002V3H2.00024V5ZM7.00024 12V10.9062C6.83879 10.849 6.68254 10.7604 6.53149 10.6406L5.58618 11.1797L5.08618 10.3203L6.02368 9.77344C6.00806 9.6901 6.00024 9.59896 6.00024 9.5C6.00024 9.40625 6.00806 9.3151 6.02368 9.22656L5.08618 8.67969L5.58618 7.82031L6.53149 8.35938C6.68254 8.23958 6.83879 8.15104 7.00024 8.09375V7H8.00024V8.09375C8.08879 8.125 8.16952 8.16146 8.24243 8.20312C8.31535 8.24479 8.39087 8.29688 8.46899 8.35938L9.41431 7.82031L9.91431 8.67969L8.97681 9.22656C8.99243 9.3151 9.00024 9.40625 9.00024 9.5C9.00024 9.59896 8.99243 9.6901 8.97681 9.77344L9.91431 10.3203L9.41431 11.1797L8.46899 10.6406C8.39608 10.6979 8.32316 10.7474 8.25024 10.7891C8.17733 10.8307 8.09399 10.8698 8.00024 10.9062V12H7.00024ZM6.75024 9.5C6.75024 9.70833 6.82316 9.88542 6.96899 10.0312C7.11483 10.1771 7.29191 10.25 7.50024 10.25C7.70858 10.25 7.88566 10.1771 8.03149 10.0312C8.17733 9.88542 8.25024 9.70833 8.25024 9.5C8.25024 9.29167 8.17733 9.11458 8.03149 8.96875C7.88566 8.82292 7.70858 8.75 7.50024 8.75C7.29191 8.75 7.11483 8.82292 6.96899 8.96875C6.82316 9.11458 6.75024 9.29167 6.75024 9.5ZM12.0843 15V13.9062C11.9228 13.849 11.7666 13.7604 11.6156 13.6406L10.6702 14.1797L10.1702 13.3203L11.1077 12.7734C11.0921 12.6901 11.0843 12.599 11.0843 12.5C11.0843 12.4062 11.0921 12.3151 11.1077 12.2266L10.1702 11.6797L10.6702 10.8203L11.6156 11.3594C11.7666 11.2396 11.9228 11.151 12.0843 11.0938V10H13.0843V11.0938C13.1728 11.125 13.2536 11.1615 13.3265 11.2031C13.3994 11.2448 13.4749 11.2969 13.5531 11.3594L14.4984 10.8203L14.9984 11.6797L14.0609 12.2266C14.0765 12.3151 14.0843 12.4062 14.0843 12.5C14.0843 12.599 14.0765 12.6901 14.0609 12.7734L14.9984 13.3203L14.4984 14.1797L13.5531 13.6406C13.4801 13.6979 13.4072 13.7474 13.3343 13.7891C13.2614 13.8307 13.1781 13.8698 13.0843 13.9062V15H12.0843ZM11.8343 12.5C11.8343 12.7083 11.9072 12.8854 12.0531 13.0312C12.1989 13.1771 12.376 13.25 12.5843 13.25C12.7926 13.25 12.9697 13.1771 13.1156 13.0312C13.2614 12.8854 13.3343 12.7083 13.3343 12.5C13.3343 12.2917 13.2614 12.1146 13.1156 11.9688C12.9697 11.8229 12.7926 11.75 12.5843 11.75C12.376 11.75 12.1989 11.8229 12.0531 11.9688C11.9072 12.1146 11.8343 12.2917 11.8343 12.5Z" fill="#424242"/>
</svg>

<svg viewBox="0 0 16 16" fill="none" xmlns="http://www.w3.org/2000/svg" height="1em" width="1em">
  <path fill-rule="evenodd" clip-rule="evenodd" d="M1.5 2h13l.5.5V9h-1V6H2v7h7v1H1.5l-.5-.5v-11l.5-.5ZM2 5h12V3H2v2Zm5 7v-1.094a1.633 1.633 0 0 1-.469-.265l-.945.539-.5-.86.938-.547a1.571 1.571 0 0 1 0-.547l-.938-.546.5-.86.945.54c.152-.12.308-.209.47-.266V7h1v1.094a1.48 1.48 0 0 1 .468.265l.945-.539.5.86-.937.547a1.571 1.571 0 0 1 0 .546l.937.547-.5.86-.945-.54a1.806 1.806 0 0 1-.469.266V12H7Zm-.25-2.5c0 .208.073.385.219.531a.723.723 0 0 0 .531.219.723.723 0 0 0 .531-.219.723.723 0 0 0 .22-.531.723.723 0 0 0-.22-.531.723.723 0 0 0-.53-.219.723.723 0 0 0-.532.219.723.723 0 0 0-.219.531Zm5.334 5.5v-1.094a1.632 1.632 0 0 1-.468-.265l-.946.539-.5-.86.938-.547a1.572 1.572 0 0 1 0-.547l-.938-.546.5-.86.946.54c.15-.12.307-.209.468-.266V10h1v1.094a1.482 1.482 0 0 1 .47.265l.944-.539.5.86-.937.547a1.572 1.572 0 0 1 0 .546l.937.547-.5.86-.945-.54a1.815 1.815 0 0 1-.219.15 1.87 1.87 0 0 1-.25.116V15h-1Zm-.25-2.5a.72.72 0 0 0 .22.531.723.723 0 0 0 .53.219.723.723 0 0 0 .532-.219.723.723 0 0 0 .218-.531.723.723 0 0 0-.218-.531.723.723 0 0 0-.532-.219.723.723 0 0 0-.53.219.723.723 0 0 0-.22.531Z" fill="#424242"/>
</svg>
